svg/printer_search.svg

<svg xmlns="http://www.w3.org/2000/svg" viewBox="0 0 24 24"><path d="M20.3 18.9c.4-.7.7-1.5.7-2.4 0-2.5-2-4.5-4.5-4.5S12 14 12 16.5s2 4.5 4.5 4.5c.9 0 1.7-.2 2.4-.7l3.1 3.1 1.4-1.4zm-3.8.1c-1.4 0-2.5-1.1-2.5-2.5s1.1-2.5 2.5-2.5 2.5 1.1 2.5 2.5-1.1 2.5-2.5 2.5M18 7H6V3h12zM6 21v-4H2v-6c0-1.7 1.3-3 3-3h14c1.7 0 3 1.3 3 3v2c-1.2-1.8-3.2-3-5.5-3-2.7 0-5 1.7-6 4H8v5h2.5c.3.7.8 1.4 1.3 2z"/></svg>

<?xml version="1.0" encoding="UTF-8"?><!DOCTYPE svg PUBLIC "-//W3C//DTD SVG 1.1//EN" "http://www.w3.org/Graphics/SVG/1.1/DTD/svg11.dtd"><svg xmlns="http://www.w3.org/2000/svg" xmlns:xlink="http://www.w3.org/1999/xlink" version="1.1" id="mdi-printer-search" width="24" height="24" viewBox="0 0 24 24"><path d="M20.3 18.9C20.7 18.2 21 17.4 21 16.5C21 14 19 12 16.5 12S12 14 12 16.5 14 21 16.5 21C17.4 21 18.2 20.8 18.9 20.3L22 23.4L23.4 22L20.3 18.9M16.5 19C15.1 19 14 17.9 14 16.5S15.1 14 16.5 14 19 15.1 19 16.5 17.9 19 16.5 19M18 7H6V3H18V7M6 21V17H2V11C2 9.3 3.3 8 5 8H19C20.7 8 22 9.3 22 11V13C20.8 11.2 18.8 10 16.5 10C13.8 10 11.5 11.7 10.5 14H8V19H10.5C10.8 19.7 11.3 20.4 11.8 21H6Z" /></svg>
